!! 00000] TT[00
!! NN
!!!OTL: Yangtao shenglai nian dui nian
!!!ARE: Asia, China,ˇGuangdong, Leizhou, Halbinsel gegengÅber von Hainan)
!! Ethnic Group: Han
!! II, 398, 2)
!!!SCT: C0247
!!!YEM: Copyright 1995, estate of Helmut Schaffrath.
**kern
*ICvox
*Ivox
!! 5/82+3 metric grouping
!! Mixed meters:  2/4; 3/8
*M3/8
*k[f#c#g#]
*A:
{2aa
=1
8ff#
8ff#
16cc#
16ee
16cc#
16ee
=2
16ff#
16ee
8cc#
8r}
=3
{16ff#
16aa
=4
*M2/4
16ee
16ff#
16ff#
16ee
16ff#
16ee
16cc#
16ff#
=5
16ee
16ee
16ee
16ff#
8cc#
8b
=6
8cc#
16ee
16cc#
8b
8a
=7
2b}
=8
{16ee
16ff#
16ee
16cc#
8b
8r}
=9
{8ff#
16ff#
16aa
16cc#
16ee
8cc#
=10
8ee
8a
8ff#
8ee}
=11
*M3/8
{16cc#
16ee
16.b
32cc#
16b
16a
=12
*M2/4
2b
=13
8cc#
16ee
16cc#
8a
8b
=14
16cc#
16b
8a
4b}
=15
{2aa
=16
16ff#
16ee
8ee
8ff#
8ee
=17
*M3/8
16ff#
16ee
8dd
8r}
=18
{16dd
16ee
=19
16ff#
16ee
16.ff#
32aa
16ff#
[16ee
=20
*M2/4
2ee]}
=21
{8ff#
8ee
8ff#
8cc#
8ee
=22
16b
16cc#
8a
8cc#
8b
=23
8cc#
8ee
16cc#
16ee
8a
=24
2b}
=25
{16ee
16ff#
16ee
16cc#
8b
8r}
=26
{16ee
16ff#
8ee
8ff#
8ee
=27
16ff#
16ee
8dd
8ff#
8ee}
=28
{16b
16cc#
8a
8cc#
16ee
16a
=29
2b
=30
8cc#
8ee
4cc#
=31
4a
4b}
==
!!!AGN: Shange, Leizhouge, Wenda duichang. Cai shuiguoming
!! Mehrere Fermaten, vereinzelt Verzierungen und Glissandi.
!!!ONB: ESAC (Essen Associative Code) Database: CHINA
!!!AMT: irregular
!!!AIN: vox
!!!EED: Helmut Schaffrath
!!!EEV: 1.0
*-
!!!ONB: Tied note syntax fixed by Craig Sapp, 2004/05/03/
